X: 2928
T: Barrel Of Monkeys, The
R: jig
M: 6/8
K: Amajor
|:~A3 cAA|efa fec|~A3 cBA|B3 ecB|
~A3 cAA|efa fec|Bce fec|1 AcA B3:|2 AcA Bc/d/e||
|:f2e a2f|ecB ~A3|~f3 afe|aec Bc/d/e|
~f3 a2f|ecB ABc|dcB cec|AFF F3:|

